X: 6297
T: Carraigín Idir Na Clocha
R: slip jig
M: 9/8
K: Eminor
|:"Em" EGA B2 B AFD|EGA Bcd"D" BFD|"Em" EGA B2 B AFD|1 "D" GFE FGA BFD:|2 "G" GFE FGA BAG||
"D" FDF A2 c BFD|"G" GDG Acd cAD|"D" FDF A2 c BFD|"G" GFE FGA BAG|
"D" FDF A2 c BFD|"G" GDG Acd cAB|"Bm" def Bcd c2 A|"G" BcB GAF"D" GFD||

